X:1
T:Der Jäger und die Nixe
T:Satz: Friedrich Silcher
T:Dichtung und Melodie von den Thüringer Stundenten Otmar Schönhuth und Johann Gottlieb Friedrich Haußmann
T:Der Jäger und die Nixe
T:CPDL - Creative Commons Attribution Non Commercial 3.0
T:CPDL - Creative Commons Attribution Non Commercial 3.0
C:Friedrich Silcher
Z:CPDL - Creative Commons Attribution Non Commercial 3.0
%%score [ ( 1 2 ) ( 3 4 ) ]
L:1/8
Q:1/4=60
M:3/8
K:Bb
V:1 treble-8 nm="Tenor"
V:2 treble-8 
V:3 bass nm="Bass"
V:4 bass 
V:1
"^Langsam" f | f>ed | (gf)f | (fe)d | c2 f/f/ | f>ed | gfe | d>ed | c2 (c/c/) | (cd)e | %10
w: 1.~Bei|nächt- li- cher|Weil an ein's|Wal- * des|Born, tät ein|1.~Jä- ger gar|trau- rig- lich|ste- * *|hen; an der|Hüf- ten hängt|
w: 2.~"Die|du dich im|Traum mir ge-|zei- * get|hier, trau- te|2.~Ni- xe, schaff'|Ruh mei- ner|See- * *|len; du _|mei- * nes|
 (ed)(f/f/) | (f>e)d | c2 (f/f/) | fdB | gec | (d2 c) | B2!pp! d |[Q:1/4=56]"^ritard." (f2 e) | %18
w: 1.~stumm _ sein _|gül- de- nes|Horn, wild im|Win- de die|1.~Haa- re ihm|we- *|hen, ja|we- *|
w: 2.~Le- bens al- *|lei- ni- ge|Zier, was _|willst du mich|2,~e- wig- lich|quä- *|len?", ja|quä- *|
 !fermata!d2 |] %19
w: hen.|
w: len.|
V:2
 d | d>cB | (ed)d | (cc)B | A2 B/B/ | B>AB | B=Bc | _B>cB | A2 (A/A/) | (AB)c | (cB)(d/d/) | %11
 (c>c)B | A2 (B/B/) | BBB | BBB | (B2 A) | B2 B | (d2 c) | B2 |] %19
V:3
 B, | B,>B,B, | (B,B,)B, | (F,F,)F, | F,2 F,/F,/ | F,>F,F, | E,F,G, | F,3 | F,2 (F,/F,/) | %9
w: 3.~So|klagt er, und|rau- * schend|tö- net's her-|vor aus des|3.~Quel- les tief|un- ters- ten|Grün-|den, wie ein|
w: 4.~Da|stür- zet der|Jä- ger sich|stracks _ hin-|ein in die|4.~Tie- fe, bald|ist er ver-|schwun-|den, dort _|
 (F,F,)F, | (F,F,)(F,/F,/) | (F,>F,)F, | F,2 (F,/F,/) | F,F,F, | G,G,G, | (F,2 E,) | B,2!pp! B, | %17
w: Men- * schen-|3.~laut _ zu des|Jä- * gers|Ohr: komm' her-|ein, so tust|3.~Ru- he du|fin- *|den, ja|
w: un- ten em-|4.~pfaht ihn das _|Lieb- * chen|fein, sei- ne|Ruh' * *|4.~end- lich ge-|fun- *|den, ja|
 (F,2 A,) | !fermata!F,2 |] %19
w: fin- *|den.|
w: |den.|
V:4
 B,, | B,,>B,,B,, | (B,,B,,)B,, | (A,,A,,)B,, | F,2 F,/F,/ | D,>C,B,, | E,D,C, | F,3 | %8
w: ||||||||
w: ||||||||
 F,2 (F,/F,/) | (F,F,)F, | (B,,B,,)(B,,/B,,/) | (A,,>A,,)B,, | F,2 (D,/D,/) | D,B,,D, | E,G,E, | %15
w: |||||||
w: |||||* hat er||
 (F,2 F,,) | B,,2 B, | F,3 | B,,2 |] %19
w: ||||
w: ||fun-||

